images/user-star.svg

<svg width="14" height="13" viewBox="0 0 14 13" fill="none" xmlns="http://www.w3.org/2000/svg">
<path d="M13.9634 4.91196C13.8712 4.63728 13.6198 4.4428 13.3235 4.41682L9.28207 4.0613L7.68489 0.438008C7.56697 0.171808 7.29866 0 7.00001 0C6.70136 0 6.43294 0.171808 6.31576 0.438008L4.71859 4.0613L0.676563 4.41682C0.380263 4.44332 0.129359 4.63779 0.0366454 4.91196C-0.0555344 5.18665 0.0295957 5.48793 0.25369 5.67837L3.30865 8.27403L2.4079 12.1182C2.34199 12.4008 2.45522 12.6931 2.69725 12.8627C2.82735 12.9543 2.9802 13 3.13359 13C3.26539 13 3.39731 12.9661 3.51512 12.8977L7.00001 10.8787L10.4843 12.8977C10.7399 13.0457 11.0613 13.0322 11.3028 12.8627C11.5448 12.6931 11.658 12.4008 11.5921 12.1182L10.6914 8.27403L13.7463 5.67837C13.9703 5.48793 14.0556 5.18727 13.9634 4.91196Z" fill="#3E80CE"/>
</svg>

<svg width="14" height="13" fill="none" xmlns="http://www.w3.org/2000/svg"><path d="M13.963 4.912a.739.739 0 00-.64-.495l-4.04-.356L7.684.438A.745.745 0 007 0a.744.744 0 00-.684.438L4.719 4.061l-4.042.356a.741.741 0 00-.64.495.708.708 0 00.217.766l3.055 2.596-.901 3.844a.71.71 0 00.29.745.757.757 0 00.817.035L7 10.878l3.484 2.02a.764.764 0 00.819-.035.71.71 0 00.29-.745l-.902-3.844 3.055-2.596a.707.707 0 00.217-.766z" fill="#3E80CE"/></svg>
